img/icons/bin-logo.svg

<svg width="13" height="16" viewBox="0 0 13 16" fill="none" xmlns="http://www.w3.org/2000/svg">
<path d="M1 5V15C1 15.55 1.45 16 2 16H11C11.55 16 12 15.55 12 15V5H1ZM4 14H3V7H4V14ZM6 14H5V7H6V14ZM8 14H7V7H8V14ZM10 14H9V7H10V14ZM12.25 2H9V0.75C8.99921 0.551331 8.91994 0.361024 8.77946 0.220543C8.63898 0.0800612 8.44867 0.000789946 8.25 0L4.75 0C4.55133 0.000789946 4.36102 0.0800612 4.22054 0.220543C4.08006 0.361024 4.00079 0.551331 4 0.75V2H0.75C0.55125 2.00053 0.360791 2.07971 0.220253 2.22025C0.079715 2.36079 0.000527891 2.55125 0 2.75V4H13V2.75C12.9995 2.55125 12.9203 2.36079 12.7797 2.22025C12.6392 2.07971 12.4488 2.00053 12.25 2ZM8 2H5V1.013H8V2Z" fill="white"/>
</svg>

<svg width="13" height="16" fill="none" xmlns="http://www.w3.org/2000/svg"><path d="M1 5v10c0 .55.45 1 1 1h9c.55 0 1-.45 1-1V5H1zm3 9H3V7h1v7zm2 0H5V7h1v7zm2 0H7V7h1v7zm2 0H9V7h1v7zm2.25-12H9V.75A.753.753 0 0 0 8.25 0h-3.5A.753.753 0 0 0 4 .75V2H.75a.752.752 0 0 0-.75.75V4h13V2.75a.752.752 0 0 0-.75-.75zM8 2H5v-.987h3V2z" fill="#fff"/></svg>
